X: 18431
T: Hunting The Hare
R: jig
M: 6/8
K: Dmajor
|:d2 D FGA|Bcd edc|d2 D FGA|Bdc d3:|
fed fed|fed fed|ecd ecd|egf e3|
fed fed|fed fed|ecd ecd|egf e3||

